assets/img/img-pages/fran/calculations.svg

<svg width="84" height="84" viewBox="0 0 84 84" fill="none" xmlns="http://www.w3.org/2000/svg">
<path fill-rule="evenodd" clip-rule="evenodd" d="M15.1206 15.1206H39.7054V39.7054H15.1206V15.1206ZM66.257 15.1206H41.6722V38.3127C44.7058 36.0965 48.4449 34.7884 52.4895 34.7884C57.9721 34.7884 62.8934 37.192 66.257 41.003V15.1206ZM68.2237 43.6846V13.1538H13.1538V68.2237H42.0176C44.9876 70.2902 48.5971 71.5017 52.4895 71.5017C62.6276 71.5017 70.8461 63.2832 70.8461 53.1451C70.8461 49.6844 69.8885 46.4474 68.2237 43.6846ZM39.6425 66.257C36.2424 62.9252 34.1328 58.2815 34.1328 53.1451C34.1328 48.804 35.6397 44.8148 38.159 41.6722H15.1206V66.257H39.6425ZM68.8793 53.1451C68.8793 62.1969 61.5413 69.5349 52.4895 69.5349C43.4376 69.5349 36.0996 62.1969 36.0996 53.1451C36.0996 44.0932 43.4376 36.7552 52.4895 36.7552C61.5413 36.7552 68.8793 44.0932 68.8793 53.1451ZM26.5935 28.5603V32.8216H28.5603V28.5603H32.8216V26.5935H28.5603V22.3321H26.5935V26.5935H22.3321V28.5603H26.5935ZM58.3898 26.5935H47.9003V28.5603H58.3898V26.5935ZM58.3898 49.5393H47.9003V51.5061H58.3898V49.5393ZM58.3898 55.4396H47.9003V57.4064H58.3898V55.4396ZM23.1729 56.1583L26.1861 53.1451L23.1729 50.1318L24.5636 48.7411L27.5769 51.7543L30.5901 48.7411L31.9808 50.1318L28.9676 53.1451L31.9808 56.1583L30.5901 57.549L27.5769 54.5358L24.5636 57.549L23.1729 56.1583Z" fill="#1D3557"/>
</svg>

<svg width="84" height="84" fill="none" xmlns="http://www.w3.org/2000/svg"><path fill-rule="evenodd" clip-rule="evenodd" d="M15.12 15.12h24.585v24.585H15.121V15.121Zm51.137 0H41.672v23.193a18.274 18.274 0 0 1 10.818-3.525 18.312 18.312 0 0 1 13.767 6.215V15.121Zm1.967 28.565V13.154h-55.07v55.07h28.864a18.272 18.272 0 0 0 10.471 3.278c10.139 0 18.357-8.219 18.357-18.357 0-3.46-.958-6.698-2.622-9.46ZM39.642 66.257a18.301 18.301 0 0 1-5.51-13.112c0-4.341 1.508-8.33 4.027-11.473H15.121v24.585h24.521ZM68.88 53.145c0 9.052-7.338 16.39-16.39 16.39-9.051 0-16.39-7.338-16.39-16.39s7.339-16.39 16.39-16.39c9.052 0 16.39 7.338 16.39 16.39ZM26.593 28.56v4.262h1.967V28.56h4.262v-1.966H28.56v-4.262h-1.966v4.261h-4.262v1.967h4.261Zm31.797-1.966H47.9v1.966h10.49v-1.966Zm0 22.945H47.9v1.967h10.49V49.54Zm0 5.9H47.9v1.967h10.49V55.44Zm-35.217.72 3.013-3.014-3.013-3.013 1.39-1.39 3.014 3.012 3.013-3.013 1.39 1.39-3.012 3.014 3.013 3.013-1.39 1.391-3.014-3.013-3.013 3.013-1.391-1.39Z" fill="#1D3557"/></svg>
